; G-Code generated by Simplify3D(R) Version 4.0.0
; Oct 27, 2017 at 10:26:51 AM
; Settings Summary
;   processName,Process1
;   applyToModels,CNC_Laser_Mount
;   profileName,LulzBot TAZ 5 (modified)
;   profileVersion,2015-05-01 08:00:00
;   baseProfile,
;   printMaterial,ABS
;   printQuality,Medium
;   printExtruders,
;   extruderName,Primary Extruder
;   extruderToolheadNumber,0
;   extruderDiameter,0.5
;   extruderAutoWidth,0
;   extruderWidth,0.4
;   extrusionMultiplier,0.99
;   extruderUseRetract,1
;   extruderRetractionDistance,1.7
;   extruderExtraRestartDistance,0
;   extruderRetractionZLift,0
;   extruderRetractionSpeed,1800
;   extruderUseCoasting,0
;   extruderCoastingDistance,0.2
;   extruderUseWipe,0
;   extruderWipeDistance,5
;   primaryExtruder,0
;   layerHeight,0.325
;   topSolidLayers,3
;   bottomSolidLayers,3
;   perimeterOutlines,3
;   printPerimetersInsideOut,1
;   startPointOption,2
;   startPointOriginX,0
;   startPointOriginY,0
;   sequentialIslands,0
;   spiralVaseMode,0
;   firstLayerHeightPercentage,90
;   firstLayerWidthPercentage,100
;   firstLayerUnderspeed,0.5
;   useRaft,0
;   raftExtruder,0
;   raftTopLayers,3
;   raftBaseLayers,2
;   raftOffset,3
;   raftSeparationDistance,0.14
;   raftTopInfill,100
;   aboveRaftSpeedMultiplier,0.3
;   useSkirt,1
;   skirtExtruder,0
;   skirtLayers,1
;   skirtOutlines,8
;   skirtOffset,0
;   usePrimePillar,0
;   primePillarExtruder,999
;   primePillarWidth,12
;   primePillarLocation,7
;   primePillarSpeedMultiplier,1
;   useOozeShield,0
;   oozeShieldExtruder,999
;   oozeShieldOffset,2
;   oozeShieldOutlines,1
;   oozeShieldSidewallShape,1
;   oozeShieldSidewallAngle,30
;   oozeShieldSpeedMultiplier,1
;   infillExtruder,0
;   internalInfillPattern,Rectilinear
;   externalInfillPattern,Rectilinear
;   infillPercentage,20
;   outlineOverlapPercentage,15
;   infillExtrusionWidthPercentage,200
;   minInfillLength,5
;   infillLayerInterval,1
;   internalInfillAngles,45,-45
;   overlapInternalInfillAngles,0
;   externalInfillAngles,45,-45
;   generateSupport,1
;   supportExtruder,0
;   supportInfillPercentage,30
;   supportExtraInflation,0
;   supportBaseLayers,0
;   denseSupportExtruder,0
;   denseSupportLayers,0
;   denseSupportInfillPercentage,70
;   supportLayerInterval,1
;   supportHorizontalPartOffset,0.28
;   supportUpperSeparationLayers,1
;   supportLowerSeparationLayers,1
;   supportType,1
;   supportGridSpacing,2
;   maxOverhangAngle,35
;   supportAngles,0
;   temperatureName,Primary Extruder,Heated Bed
;   temperatureNumber,0,1
;   temperatureSetpointCount,1,1
;   temperatureSetpointLayers,1,1
;   temperatureSetpointTemperatures,240,110
;   temperatureStabilizeAtStartup,1,1
;   temperatureHeatedBed,0,1
;   temperatureRelayBetweenLayers,0,0
;   temperatureRelayBetweenLoops,0,0
;   fanLayers,1
;   fanSpeeds,0
;   blipFanToFullPower,1
;   adjustSpeedForCooling,1
;   minSpeedLayerTime,15
;   minCoolingSpeedSlowdown,20
;   increaseFanForCooling,0
;   minFanLayerTime,45
;   maxCoolingFanSpeed,100
;   increaseFanForBridging,0
;   bridgingFanSpeed,100
;   use5D,1
;   relativeEdistances,0
;   allowEaxisZeroing,1
;   independentExtruderAxes,0
;   includeM10123,0
;   stickySupport,1
;   applyToolheadOffsets,0
;   gcodeXoffset,0
;   gcodeYoffset,0
;   gcodeZoffset,0
;   overrideMachineDefinition,1
;   machineTypeOverride,0
;   strokeXoverride,298
;   strokeYoverride,275
;   strokeZoverride,250
;   originOffsetXoverride,0
;   originOffsetYoverride,0
;   originOffsetZoverride,0
;   homeXdirOverride,-1
;   homeYdirOverride,-1
;   homeZdirOverride,-1
;   flipXoverride,1
;   flipYoverride,-1
;   flipZoverride,1
;   toolheadOffsets,0,0|0,0|0,0|0,0|0,0|0,0
;   overrideFirmwareConfiguration,1
;   firmwareTypeOverride,RepRap (Marlin/Repetier/Sprinter)
;   GPXconfigOverride,r2
;   baudRateOverride,115200
;   overridePrinterModels,1
;   printerModelsOverride,LulzBot_TAZ3.stl
;   startingGcode,G28 ; home all axes
;   layerChangeGcode,
;   retractionGcode,
;   toolChangeGcode,
;   endingGcode,M104 S0 ; turn off extruder,M140 S0 ; turn off bed,G28 X0 ; home X axis,M84 ; disable motors
;   exportFileFormat,gcode
;   celebration,0
;   celebrationSong,Random Song
;   postProcessing,
;   defaultSpeed,3800
;   outlineUnderspeed,0.5
;   solidInfillUnderspeed,0.8
;   supportUnderspeed,0.8
;   rapidXYspeed,4800
;   rapidZspeed,1000
;   minBridgingArea,50
;   bridgingExtraInflation,0
;   bridgingExtrusionMultiplier,1
;   bridgingSpeedMultiplier,1
;   useFixedBridgingAngle,0
;   fixedBridgingAngle,0
;   applyBridgingToPerimeters,0
;   filamentDiameters,3|3|3|3|3|3
;   filamentPricesPerKg,20|46|46|46|46|46
;   filamentDensities,1.25|1.25|1.25|1.25|1.25|1.25
;   useMinPrintHeight,0
;   minPrintHeight,0
;   useMaxPrintHeight,0
;   maxPrintHeight,0
;   useDiaphragm,0
;   diaphragmLayerInterval,20
;   robustSlicing,1
;   mergeAllIntoSolid,0
;   onlyRetractWhenCrossingOutline,1
;   retractBetweenLayers,1
;   useRetractionMinTravel,0
;   retractionMinTravel,3
;   retractWhileWiping,0
;   onlyWipeOutlines,1
;   avoidCrossingOutline,0
;   maxMovementDetourFactor,3
;   toolChangeRetractionDistance,12
;   toolChangeExtraRestartDistance,-0.5
;   toolChangeRetractionSpeed,600
;   externalThinWallType,0
;   internalThinWallType,2
;   thinWallAllowedOverlapPercentage,10
;   singleExtrusionMinLength,1
;   singleExtrusionMinPrintingWidthPercentage,50
;   singleExtrusionMaxPrintingWidthPercentage,200
;   singleExtrusionEndpointExtension,0.2
;   horizontalSizeCompensation,0
G90
M82
M106 S255
G4 P500
M106 S0
M140 S110
M190 S110
M104 S240 T0
M109 S240 T0
G28 ; home all axes
G92 E0
G1 E-1.7000 F1800
G1 Z0.292 F1000
; process Process1
; layer 1, Z = 0.293
T0
; tool H0.325 W0.400
; skirt
G1 X106.249 Y104.107 F4800
G1 E0.0000 F540
G92 E0
G1 X106.443 Y103.939 E0.0047 F1900
G1 X107.468 Y103.189 E0.0278
G1 X107.574 Y103.118 E0.0301
G1 X163.425 Y69.164 E1.2202
G1 X163.515 Y69.114 E1.2221
G1 X164.421 Y68.644 E1.2406
G1 X164.609 Y68.563 E1.2444
G1 X165.618 Y68.204 E1.2639
G1 X165.815 Y68.149 E1.2676
G1 X166.864 Y67.931 E1.2871
G1 X167.067 Y67.903 E1.2908
G1 X168.085 Y67.834 E1.3094
G1 X168.188 Y67.830 E1.3113
G1 X185.569 Y67.830 E1.6278
G1 X185.687 Y67.835 E1.6299
G1 X186.856 Y67.927 E1.6513
G1 X187.089 Y67.964 E1.6555
G1 X188.287 Y68.251 E1.6780
G1 X188.511 Y68.324 E1.6823
G1 X189.650 Y68.796 E1.7047
G1 X189.860 Y68.903 E1.7090
G1 X190.910 Y69.546 E1.7314
G1 X191.101 Y69.685 E1.7357
G1 X192.038 Y70.485 E1.7582
G1 X192.205 Y70.652 E1.7625
G1 X193.005 Y71.589 E1.7849
G1 X193.144 Y71.780 E1.7892
G1 X193.787 Y72.830 E1.8116
G1 X193.894 Y73.040 E1.8159
G1 X194.366 Y74.179 E1.8383
G1 X194.439 Y74.403 E1.8426
G1 X194.726 Y75.601 E1.8651
G1 X194.763 Y75.834 E1.8694
G1 X194.855 Y77.003 E1.8907
G1 X194.860 Y77.121 E1.8929
G1 X194.860 Y90.365 E2.1340
G1 X194.855 Y90.485 E2.1362
G1 X194.760 Y91.674 E2.1579
G1 X194.722 Y91.910 E2.1623
G1 X194.425 Y93.127 E2.1851
G1 X194.350 Y93.354 E2.1894
G1 X193.863 Y94.508 E2.2122
G1 X193.754 Y94.719 E2.2166
G1 X193.107 Y95.756 E2.2388
G1 X192.966 Y95.946 E2.2431
G1 X192.126 Y96.913 E2.2664
G1 X191.951 Y97.084 E2.2709
G1 X190.985 Y97.885 E2.2937
G1 X190.789 Y98.023 E2.2981
G1 X189.711 Y98.659 E2.3209
G1 X189.495 Y98.764 E2.3253
G1 X188.317 Y99.226 E2.3483
G1 X188.064 Y99.300 E2.3531
G1 X182.268 Y100.457 E2.4607
G1 X177.907 Y101.870 E2.5442
G1 X173.750 Y103.792 E2.6276
G1 X169.853 Y106.197 E2.7110
G1 X166.271 Y109.051 E2.7943
G1 X163.055 Y112.311 E2.8777
G1 X160.252 Y115.933 E2.9611
G1 X157.902 Y119.864 E3.0445
G1 X156.038 Y124.047 E3.1279
G1 X154.687 Y128.425 E3.2113
G1 X153.869 Y132.929 E3.2946
G1 X153.595 Y137.500 E3.3780
G1 X153.869 Y142.071 E3.4614
G1 X154.688 Y146.577 E3.5448
G1 X156.038 Y150.953 E3.6282
G1 X157.902 Y155.136 E3.7115
G1 X160.257 Y159.073 E3.7951
G1 X163.055 Y162.689 E3.8783
G1 X166.271 Y165.950 E3.9617
G1 X169.853 Y168.803 E4.0451
G1 X173.750 Y171.208 E4.1285
G1 X177.907 Y173.130 E4.2118
G1 X182.268 Y174.543 E4.2953
G1 X188.064 Y175.700 E4.4029
G1 X188.317 Y175.774 E4.4077
G1 X189.495 Y176.236 E4.4308
G1 X189.711 Y176.341 E4.4351
G1 X190.789 Y176.977 E4.4579
G1 X190.985 Y177.115 E4.4623
G1 X191.949 Y177.914 E4.4851
G1 X192.121 Y178.082 E4.4895
G1 X192.945 Y179.025 E4.5123
G1 X193.088 Y179.217 E4.5166
G1 X193.752 Y180.279 E4.5394
G1 X193.863 Y180.492 E4.5438
G1 X194.350 Y181.646 E4.5666
G1 X194.425 Y181.873 E4.5710
G1 X194.722 Y183.090 E4.5938
G1 X194.760 Y183.326 E4.5981
G1 X194.855 Y184.515 E4.6198
G1 X194.860 Y184.635 E4.6220
G1 X194.860 Y197.879 E4.8632
G1 X194.855 Y197.997 E4.8653
G1 X194.763 Y199.166 E4.8867
G1 X194.726 Y199.399 E4.8910
G1 X194.439 Y200.597 E4.9134
G1 X194.366 Y200.821 E4.9177
G1 X193.894 Y201.960 E4.9401
G1 X193.787 Y202.171 E4.9444
G1 X193.140 Y203.226 E4.9670
G1 X193.001 Y203.417 E4.9713
G1 X192.204 Y204.349 E4.9936
G1 X192.038 Y204.515 E4.9979
G1 X191.101 Y205.315 E5.0203
G1 X190.910 Y205.454 E5.0246
G1 X189.860 Y206.097 E5.0470
G1 X189.650 Y206.204 E5.0513
G1 X188.511 Y206.676 E5.0737
G1 X188.287 Y206.749 E5.0780
G1 X187.089 Y207.036 E5.1005
G1 X186.856 Y207.073 E5.1048
G1 X185.687 Y207.165 E5.1261
G1 X185.569 Y207.170 E5.1283
G1 X168.188 Y207.170 E5.4447
G1 X168.085 Y207.166 E5.4466
G1 X167.067 Y207.097 E5.4652
G1 X166.864 Y207.069 E5.4689
G1 X165.815 Y206.851 E5.4884
G1 X165.618 Y206.796 E5.4921
G1 X164.609 Y206.437 E5.5117
G1 X164.421 Y206.356 E5.5154
G1 X163.515 Y205.886 E5.5340
G1 X163.425 Y205.836 E5.5358
G1 X107.578 Y171.885 E6.7258
G1 X107.472 Y171.814 E6.7281
G1 X106.442 Y171.061 E6.7514
G1 X106.249 Y170.892 E6.7560
G1 X105.317 Y169.928 E6.7805
G1 X105.155 Y169.729 E6.7851
G1 X104.403 Y168.623 E6.8095
G1 X104.277 Y168.400 E6.8141
G1 X103.723 Y167.181 E6.8385
G1 X103.637 Y166.940 E6.8432
G1 X103.298 Y165.644 E6.8676
G1 X103.254 Y165.392 E6.8722
G1 X103.145 Y164.121 E6.8954
G1 X103.140 Y163.993 E6.8978
G1 X103.140 Y111.007 E7.8625
G1 X103.145 Y110.879 E7.8648
G1 X103.254 Y109.608 E7.8881
G1 X103.298 Y109.356 E7.8927
G1 X103.637 Y108.060 E7.9171
G1 X103.723 Y107.819 E7.9218
G1 X104.277 Y106.600 E7.9462
G1 X104.403 Y106.376 E7.9508
G1 X105.157 Y105.269 E7.9752
G1 X105.319 Y105.070 E7.9799
G1 X106.249 Y104.107 E8.0043
G1 X106.525 Y104.398 F4800
G92 E0
G1 X106.693 Y104.252 E0.0040 F1900
G1 X107.697 Y103.517 E0.0267
G1 X107.789 Y103.455 E0.0287
G1 X163.627 Y69.509 E1.2185
G1 X163.705 Y69.466 E1.2201
G1 X164.592 Y69.006 E1.2383
G1 X164.755 Y68.935 E1.2416
G1 X165.739 Y68.586 E1.2606
G1 X165.910 Y68.538 E1.2638
G1 X166.932 Y68.325 E1.2828
G1 X167.108 Y68.301 E1.2861
G1 X168.106 Y68.233 E1.3043
G1 X168.194 Y68.230 E1.3059
G1 X185.561 Y68.230 E1.6221
G1 X185.663 Y68.234 E1.6239
G1 X186.809 Y68.324 E1.6449
G1 X187.011 Y68.356 E1.6486
G1 X188.179 Y68.636 E1.6704
G1 X188.373 Y68.700 E1.6742
G1 X189.482 Y69.159 E1.6960
G1 X189.664 Y69.252 E1.6997
G1 X190.688 Y69.879 E1.7216
G1 X190.853 Y69.999 E1.7253
G1 X191.766 Y70.779 E1.7472
G1 X191.911 Y70.924 E1.7509
G1 X192.691 Y71.837 E1.7728
G1 X192.811 Y72.002 E1.7765
G1 X193.438 Y73.026 E1.7984
G1 X193.531 Y73.208 E1.8021
G1 X193.990 Y74.317 E1.8239
G1 X194.054 Y74.511 E1.8277
G1 X194.334 Y75.679 E1.8495
G1 X194.366 Y75.881 E1.8532
G1 X194.456 Y77.027 E1.8742
G1 X194.460 Y77.129 E1.8760
G1 X194.460 Y90.357 E2.1169
G1 X194.456 Y90.461 E2.1188
G1 X194.363 Y91.626 E2.1401
G1 X194.330 Y91.831 E2.1438
G1 X194.040 Y93.016 E2.1661
G1 X193.975 Y93.214 E2.1698
G1 X193.501 Y94.338 E2.1920
G1 X193.406 Y94.521 E2.1958
G1 X192.776 Y95.531 E2.2175
G1 X192.654 Y95.696 E2.2212
G1 X191.835 Y96.638 E2.2440
G1 X191.683 Y96.787 E2.2478
G1 X190.742 Y97.567 E2.2701
G1 X190.572 Y97.687 E2.2738
G1 X189.521 Y98.307 E2.2961
G1 X189.334 Y98.398 E2.2999
G1 X188.188 Y98.847 E2.3223
G1 X187.968 Y98.911 E2.3264
G1 X182.167 Y100.069 E2.4341
G1 X177.761 Y101.497 E2.5185
G1 X173.561 Y103.439 E2.6027
G1 X169.622 Y105.869 E2.6870
G1 X166.003 Y108.753 E2.7712
G1 X162.754 Y112.048 E2.8555
G1 X159.921 Y115.707 E2.9398
G1 X157.547 Y119.679 E3.0240
G1 X155.663 Y123.906 E3.1083
G1 X154.298 Y128.329 E3.1926
G1 X153.472 Y132.881 E3.2768
G1 X153.195 Y137.500 E3.3610
G1 X153.472 Y142.119 E3.4453
G1 X154.298 Y146.672 E3.5295
G1 X155.663 Y151.094 E3.6138
G1 X157.546 Y155.321 E3.6981
G1 X159.926 Y159.299 E3.7825
G1 X162.754 Y162.952 E3.8666
G1 X166.003 Y166.247 E3.9508
G1 X169.622 Y169.131 E4.0351
G1 X173.561 Y171.561 E4.1193
G1 X177.761 Y173.503 E4.2036
G1 X182.167 Y174.931 E4.2879
G1 X187.968 Y176.089 E4.3956
G1 X188.188 Y176.153 E4.3998
G1 X189.334 Y176.602 E4.4222
G1 X189.521 Y176.693 E4.4260
G1 X190.572 Y177.313 E4.4482
G1 X190.742 Y177.433 E4.4520
G1 X191.682 Y178.212 E4.4742
G1 X191.830 Y178.357 E4.4780
G1 X192.634 Y179.276 E4.5002
G1 X192.758 Y179.443 E4.5040
G1 X193.405 Y180.477 E4.5262
G1 X193.501 Y180.662 E4.5300
G1 X193.975 Y181.786 E4.5522
G1 X194.040 Y181.984 E4.5560
G1 X194.330 Y183.169 E4.5782
G1 X194.363 Y183.374 E4.5820
G1 X194.456 Y184.539 E4.6033
G1 X194.460 Y184.643 E4.6052
G1 X194.460 Y197.871 E4.8460
G1 X194.456 Y197.973 E4.8479
G1 X194.366 Y199.119 E4.8688
G1 X194.334 Y199.321 E4.8726
G1 X194.054 Y200.489 E4.8944
G1 X193.990 Y200.683 E4.8981
G1 X193.531 Y201.792 E4.9200
G1 X193.438 Y201.975 E4.9237
G1 X192.807 Y203.004 E4.9457
G1 X192.687 Y203.169 E4.9494
G1 X191.910 Y204.077 E4.9712
G1 X191.766 Y204.221 E4.9749
G1 X190.853 Y205.001 E4.9967
G1 X190.688 Y205.121 E5.0005
G1 X189.664 Y205.748 E5.0223
G1 X189.482 Y205.841 E5.0260
G1 X188.373 Y206.300 E5.0479
G1 X188.179 Y206.364 E5.0516
G1 X187.011 Y206.644 E5.0735
G1 X186.809 Y206.676 E5.0772
G1 X185.663 Y206.766 E5.0981
G1 X185.561 Y206.770 E5.1000
G1 X168.194 Y206.770 E5.4162
G1 X168.106 Y206.767 E5.4178
G1 X167.108 Y206.699 E5.4360
G1 X166.932 Y206.675 E5.4393
G1 X165.910 Y206.462 E5.4583
G1 X165.739 Y206.414 E5.4615
G1 X164.755 Y206.065 E5.4805
G1 X164.592 Y205.994 E5.4837
G1 X163.705 Y205.534 E5.5019
G1 X163.627 Y205.491 E5.5036
G1 X107.793 Y171.548 E6.6933
G1 X107.701 Y171.486 E6.6953
G1 X106.692 Y170.748 E6.7180
G1 X106.525 Y170.602 E6.7221
G1 X105.616 Y169.662 E6.7459
G1 X105.476 Y169.490 E6.7499
G1 X104.743 Y168.413 E6.7737
G1 X104.634 Y168.219 E6.7777
G1 X104.094 Y167.031 E6.8015
G1 X104.020 Y166.822 E6.8055
G1 X103.689 Y165.559 E6.8293
G1 X103.651 Y165.340 E6.8333
G1 X103.545 Y164.095 E6.8561
G1 X103.540 Y163.984 E6.8581
G1 X103.540 Y111.015 E7.8225
G1 X103.545 Y110.905 E7.8245
G1 X103.651 Y109.660 E7.8473
G1 X103.689 Y109.441 E7.8513
G1 X104.020 Y108.178 E7.8751
G1 X104.094 Y107.969 E7.8791
G1 X104.635 Y106.781 E7.9029
G1 X104.743 Y106.587 E7.9069
G1 X105.478 Y105.508 E7.9307
G1 X105.618 Y105.336 E7.9347
G1 X106.525 Y104.398 E7.9585
G1 X106.801 Y104.688 F4800
G92 E0
G1 X106.942 Y104.564 E0.0034 F1900
G1 X107.926 Y103.845 E0.0256
G1 X108.004 Y103.793 E0.0273
G1 X163.829 Y69.855 E1.2168
G1 X163.895 Y69.818 E1.2182
G1 X164.764 Y69.367 E1.2360
G1 X164.902 Y69.308 E1.2388
G1 X165.860 Y68.967 E1.2573
G1 X166.005 Y68.927 E1.2600
G1 X167.000 Y68.720 E1.2785
G1 X167.149 Y68.699 E1.2813
G1 X168.126 Y68.633 E1.2991
G1 X168.201 Y68.630 E1.3005
G1 X185.553 Y68.630 E1.6164
G1 X185.640 Y68.633 E1.6180
G1 X186.762 Y68.722 E1.6385
G1 X186.933 Y68.749 E1.6416
G1 X188.070 Y69.022 E1.6629
G1 X188.234 Y69.075 E1.6661
G1 X189.315 Y69.523 E1.6873
G1 X189.469 Y69.601 E1.6905
G1 X190.466 Y70.212 E1.7118
G1 X190.606 Y70.314 E1.7149
G1 X191.495 Y71.073 E1.7362
G1 X191.617 Y71.195 E1.7394
G1 X192.376 Y72.085 E1.7607
G1 X192.478 Y72.224 E1.7638
G1 X193.089 Y73.221 E1.7851
G1 X193.167 Y73.375 E1.7882
G1 X193.615 Y74.456 E1.8095
G1 X193.668 Y74.620 E1.8127
G1 X193.941 Y75.757 E1.8340
G1 X193.968 Y75.928 E1.8371
G1 X194.057 Y77.050 E1.8576
G1 X194.060 Y77.137 E1.8592
G1 X194.060 Y90.349 E2.0998
G1 X194.056 Y90.437 E2.1014
G1 X193.965 Y91.578 E2.1222
G1 X193.937 Y91.751 E2.1254
G1 X193.655 Y92.906 E2.1470
G1 X193.600 Y93.073 E2.1502
G1 X193.138 Y94.167 E2.1719
G1 X193.058 Y94.322 E2.1750
G1 X192.445 Y95.306 E2.1961
G1 X192.342 Y95.445 E2.1993
G1 X191.543 Y96.364 E2.2215
G1 X191.415 Y96.489 E2.2247
G1 X190.499 Y97.249 E2.2464
G1 X190.355 Y97.350 E2.2496
G1 X189.332 Y97.954 E2.2712
G1 X189.174 Y98.031 E2.2744
G1 X188.058 Y98.468 E2.2962
G1 X187.872 Y98.522 E2.2998
