; G-Code generated by Simplify3D(R) Version 4.0.0
; Nov 20, 2017 at 2:27:43 PM
; Settings Summary
;   processName,Process1
;   applyToModels,CNC_Laser_Adapter_Plate
;   profileName,LulzBot TAZ 5 (modified)
;   profileVersion,2015-05-01 08:00:00
;   baseProfile,
;   printMaterial,ABS
;   printQuality,Medium
;   printExtruders,
;   extruderName,Primary Extruder
;   extruderToolheadNumber,0
;   extruderDiameter,0.5
;   extruderAutoWidth,0
;   extruderWidth,0.4
;   extrusionMultiplier,0.94
;   extruderUseRetract,1
;   extruderRetractionDistance,3.5
;   extruderExtraRestartDistance,0
;   extruderRetractionZLift,0
;   extruderRetractionSpeed,1800
;   extruderUseCoasting,0
;   extruderCoastingDistance,0.2
;   extruderUseWipe,0
;   extruderWipeDistance,5
;   primaryExtruder,0
;   layerHeight,0.3
;   topSolidLayers,3
;   bottomSolidLayers,3
;   perimeterOutlines,3
;   printPerimetersInsideOut,1
;   startPointOption,2
;   startPointOriginX,0
;   startPointOriginY,0
;   sequentialIslands,0
;   spiralVaseMode,0
;   firstLayerHeightPercentage,90
;   firstLayerWidthPercentage,100
;   firstLayerUnderspeed,0.5
;   useRaft,0
;   raftExtruder,0
;   raftTopLayers,3
;   raftBaseLayers,2
;   raftOffset,3
;   raftSeparationDistance,0.14
;   raftTopInfill,100
;   aboveRaftSpeedMultiplier,0.3
;   useSkirt,0
;   skirtExtruder,0
;   skirtLayers,1
;   skirtOutlines,20
;   skirtOffset,0
;   usePrimePillar,0
;   primePillarExtruder,999
;   primePillarWidth,12
;   primePillarLocation,7
;   primePillarSpeedMultiplier,1
;   useOozeShield,0
;   oozeShieldExtruder,999
;   oozeShieldOffset,2
;   oozeShieldOutlines,1
;   oozeShieldSidewallShape,1
;   oozeShieldSidewallAngle,30
;   oozeShieldSpeedMultiplier,1
;   infillExtruder,0
;   internalInfillPattern,Rectilinear
;   externalInfillPattern,Rectilinear
;   infillPercentage,20
;   outlineOverlapPercentage,15
;   infillExtrusionWidthPercentage,200
;   minInfillLength,5
;   infillLayerInterval,1
;   internalInfillAngles,45,-45
;   overlapInternalInfillAngles,0
;   externalInfillAngles,45,-45
;   generateSupport,0
;   supportExtruder,0
;   supportInfillPercentage,30
;   supportExtraInflation,0
;   supportBaseLayers,0
;   denseSupportExtruder,0
;   denseSupportLayers,0
;   denseSupportInfillPercentage,70
;   supportLayerInterval,1
;   supportHorizontalPartOffset,0.3
;   supportUpperSeparationLayers,1
;   supportLowerSeparationLayers,1
;   supportType,1
;   supportGridSpacing,4
;   maxOverhangAngle,5
;   supportAngles,-90
;   temperatureName,Primary Extruder,Heated Bed
;   temperatureNumber,0,1
;   temperatureSetpointCount,1,1
;   temperatureSetpointLayers,1,1
;   temperatureSetpointTemperatures,240,110
;   temperatureStabilizeAtStartup,1,1
;   temperatureHeatedBed,0,1
;   temperatureRelayBetweenLayers,0,0
;   temperatureRelayBetweenLoops,0,0
;   fanLayers,1
;   fanSpeeds,0
;   blipFanToFullPower,1
;   adjustSpeedForCooling,1
;   minSpeedLayerTime,15
;   minCoolingSpeedSlowdown,20
;   increaseFanForCooling,0
;   minFanLayerTime,45
;   maxCoolingFanSpeed,100
;   increaseFanForBridging,0
;   bridgingFanSpeed,100
;   use5D,1
;   relativeEdistances,0
;   allowEaxisZeroing,1
;   independentExtruderAxes,0
;   includeM10123,0
;   stickySupport,1
;   applyToolheadOffsets,0
;   gcodeXoffset,0
;   gcodeYoffset,0
;   gcodeZoffset,0
;   overrideMachineDefinition,1
;   machineTypeOverride,0
;   strokeXoverride,298
;   strokeYoverride,275
;   strokeZoverride,250
;   originOffsetXoverride,0
;   originOffsetYoverride,0
;   originOffsetZoverride,0
;   homeXdirOverride,-1
;   homeYdirOverride,-1
;   homeZdirOverride,-1
;   flipXoverride,1
;   flipYoverride,-1
;   flipZoverride,1
;   toolheadOffsets,0,0|0,0|0,0|0,0|0,0|0,0
;   overrideFirmwareConfiguration,1
;   firmwareTypeOverride,RepRap (Marlin/Repetier/Sprinter)
;   GPXconfigOverride,r2
;   baudRateOverride,115200
;   overridePrinterModels,1
;   printerModelsOverride,LulzBot_TAZ3.stl
;   startingGcode,G28 ; home all axes
;   layerChangeGcode,
;   retractionGcode,
;   toolChangeGcode,
;   endingGcode,M104 S0 ; turn off extruder,M140 S0 ; turn off bed,G28 X0 ; home X axis,M84 ; disable motors
;   exportFileFormat,gcode
;   celebration,0
;   celebrationSong,Random Song
;   postProcessing,
;   defaultSpeed,3400
;   outlineUnderspeed,0.5
;   solidInfillUnderspeed,0.8
;   supportUnderspeed,0.8
;   rapidXYspeed,4800
;   rapidZspeed,1000
;   minBridgingArea,50
;   bridgingExtraInflation,0
;   bridgingExtrusionMultiplier,1
;   bridgingSpeedMultiplier,1
;   useFixedBridgingAngle,0
;   fixedBridgingAngle,0
;   applyBridgingToPerimeters,0
;   filamentDiameters,3|3|3|3|3|3
;   filamentPricesPerKg,75|46|46|46|46|46
;   filamentDensities,1.25|1.25|1.25|1.25|1.25|1.25
;   useMinPrintHeight,0
;   minPrintHeight,0
;   useMaxPrintHeight,0
;   maxPrintHeight,0
;   useDiaphragm,0
;   diaphragmLayerInterval,20
;   robustSlicing,1
;   mergeAllIntoSolid,0
;   onlyRetractWhenCrossingOutline,1
;   retractBetweenLayers,1
;   useRetractionMinTravel,0
;   retractionMinTravel,3
;   retractWhileWiping,0
;   onlyWipeOutlines,1
;   avoidCrossingOutline,0
;   maxMovementDetourFactor,3
;   toolChangeRetractionDistance,12
;   toolChangeExtraRestartDistance,-0.5
;   toolChangeRetractionSpeed,600
;   externalThinWallType,0
;   internalThinWallType,2
;   thinWallAllowedOverlapPercentage,10
;   singleExtrusionMinLength,1
;   singleExtrusionMinPrintingWidthPercentage,50
;   singleExtrusionMaxPrintingWidthPercentage,200
;   singleExtrusionEndpointExtension,0.2
;   horizontalSizeCompensation,0
G90
M82
M106 S255
G4 P500
M106 S0
M140 S110
M190 S110
M104 S240 T0
M109 S240 T0
G28 ; home all axes
G92 E0
G1 E-3.5000 F1800
G1 Z0.270 F1000
; process Process1
; layer 1, Z = 0.270
T0
; tool H0.300 W0.400
; inner perimeter
G1 X121.877 Y107.205 F4800
G1 E0.0000 F540
G92 E0
G1 X122.060 Y107.048 E0.0038 F1275
G1 X122.265 Y106.922 E0.0077
G1 X122.488 Y106.829 E0.0116
G1 X122.722 Y106.773 E0.0154
G1 X123.005 Y106.750 E0.0199
G1 X130.998 Y106.750 E0.1475
G1 X131.504 Y106.710 E0.1556
G1 X132.039 Y106.583 E0.1644
G1 X132.549 Y106.374 E0.1731
G1 X133.058 Y106.066 E0.1826
G1 X133.249 Y106.196 E0.1863
G1 X133.121 Y106.947 E0.1985
G1 X133.121 Y107.957 E0.2146
G1 X133.291 Y108.953 E0.2307
G1 X133.628 Y109.905 E0.2468
G1 X134.121 Y110.787 E0.2630
G1 X134.755 Y111.573 E0.2791
G1 X135.514 Y112.241 E0.2952
G1 X136.374 Y112.771 E0.3113
G1 X137.312 Y113.147 E0.3275
G1 X138.299 Y113.360 E0.3436
G1 X139.309 Y113.403 E0.3597
G1 X140.311 Y113.275 E0.3758
G1 X141.277 Y112.979 E0.3919
G1 X142.179 Y112.524 E0.4081
G1 X142.991 Y111.923 E0.4242
G1 X143.690 Y111.194 E0.4403
G1 X144.256 Y110.357 E0.4564
G1 X144.672 Y109.436 E0.4726
G1 X144.927 Y108.458 E0.4887
G1 X145.013 Y107.452 E0.5048
G1 X144.927 Y106.445 E0.5209
G1 X144.867 Y106.216 E0.5247
G1 X145.061 Y106.071 E0.5286
G1 X145.563 Y106.374 E0.5379
G1 X146.072 Y106.583 E0.5467
G1 X146.608 Y106.710 E0.5555
G1 X147.118 Y106.750 E0.5637
G1 X150.882 Y106.750 E0.6237
G1 X151.392 Y106.710 E0.6319
G1 X151.928 Y106.583 E0.6407
G1 X152.437 Y106.375 E0.6495
G1 X152.946 Y106.066 E0.6590
G1 X153.138 Y106.196 E0.6627
G1 X153.009 Y106.947 E0.6748
G1 X153.009 Y107.957 E0.6909
G1 X153.180 Y108.953 E0.7070
G1 X153.516 Y109.905 E0.7232
G1 X154.009 Y110.787 E0.7393
G1 X154.644 Y111.573 E0.7554
G1 X155.402 Y112.241 E0.7715
G1 X156.262 Y112.771 E0.7877
G1 X157.200 Y113.147 E0.8038
G1 X158.188 Y113.360 E0.8199
G1 X159.197 Y113.403 E0.8360
G1 X160.199 Y113.275 E0.8522
G1 X161.165 Y112.979 E0.8683
G1 X162.067 Y112.524 E0.8844
G1 X162.880 Y111.923 E0.9005
G1 X163.579 Y111.194 E0.9166
G1 X164.144 Y110.357 E0.9328
G1 X164.560 Y109.436 E0.9489
G1 X164.815 Y108.458 E0.9650
G1 X164.901 Y107.452 E0.9811
G1 X164.815 Y106.445 E0.9973
G1 X164.755 Y106.216 E1.0010
G1 X164.950 Y106.071 E1.0049
G1 X165.451 Y106.374 E1.0143
G1 X165.961 Y106.583 E1.0230
G1 X166.496 Y106.710 E1.0318
G1 X167.006 Y106.750 E1.0400
G1 X174.996 Y106.750 E1.1675
G1 X175.272 Y106.772 E1.1719
G1 X175.507 Y106.828 E1.1758
G1 X175.730 Y106.920 E1.1796
G1 X175.936 Y107.045 E1.1835
G1 X176.120 Y107.202 E1.1873
G1 X176.277 Y107.385 E1.1912
G1 X176.403 Y107.590 E1.1950
G1 X176.496 Y107.813 E1.1989
G1 X176.552 Y108.047 E1.2027
G1 X176.575 Y108.326 E1.2072
G1 X176.575 Y166.671 E2.1382
G1 X176.553 Y166.947 E2.1427
G1 X176.497 Y167.182 E2.1465
G1 X176.405 Y167.405 E2.1504
G1 X176.280 Y167.611 E2.1542
G1 X176.123 Y167.795 E2.1581
G1 X175.940 Y167.952 E2.1619
G1 X175.735 Y168.078 E2.1658
G1 X175.512 Y168.171 E2.1696
G1 X175.278 Y168.227 E2.1735
G1 X174.999 Y168.250 E2.1779
G1 X167.006 Y168.250 E2.3055
G1 X166.496 Y168.290 E2.3136
G1 X165.961 Y168.417 E2.3224
G1 X165.451 Y168.625 E2.3312
G1 X164.950 Y168.929 E2.3406
G1 X164.755 Y168.784 E2.3444
G1 X164.815 Y168.555 E2.3482
G1 X164.901 Y167.548 E2.3643
G1 X164.815 Y166.542 E2.3804
G1 X164.560 Y165.564 E2.3966
G1 X164.144 Y164.643 E2.4127
G1 X163.579 Y163.806 E2.4288
G1 X162.880 Y163.077 E2.4449
G1 X162.067 Y162.476 E2.4611
G1 X161.165 Y162.021 E2.4772
G1 X160.199 Y161.725 E2.4933
G1 X159.197 Y161.597 E2.5094
G1 X158.188 Y161.640 E2.5256
G1 X157.200 Y161.853 E2.5417
G1 X156.262 Y162.229 E2.5578
G1 X155.402 Y162.759 E2.5739
G1 X154.644 Y163.427 E2.5900
G1 X154.009 Y164.213 E2.6062
G1 X153.516 Y165.095 E2.6223
G1 X153.180 Y166.047 E2.6384
G1 X153.009 Y167.043 E2.6545
G1 X153.009 Y168.053 E2.6707
G1 X153.138 Y168.804 E2.6828
G1 X152.946 Y168.934 E2.6865
G1 X152.437 Y168.625 E2.6960
G1 X151.928 Y168.417 E2.7048
G1 X151.392 Y168.290 E2.7136
G1 X150.882 Y168.250 E2.7217
G1 X147.118 Y168.250 E2.7818
G1 X146.608 Y168.290 E2.7900
G1 X146.072 Y168.417 E2.7987
G1 X145.563 Y168.625 E2.8075
G1 X145.061 Y168.929 E2.8169
G1 X144.867 Y168.784 E2.8207
G1 X144.927 Y168.555 E2.8245
G1 X145.013 Y167.548 E2.8407
G1 X144.927 Y166.542 E2.8568
G1 X144.672 Y165.564 E2.8729
G1 X144.256 Y164.643 E2.8890
G1 X143.690 Y163.806 E2.9051
G1 X142.991 Y163.077 E2.9213
G1 X142.179 Y162.476 E2.9374
G1 X141.277 Y162.021 E2.9535
G1 X140.311 Y161.725 E2.9696
G1 X139.309 Y161.597 E2.9858
G1 X138.299 Y161.640 E3.0019
G1 X137.312 Y161.853 E3.0180
G1 X136.374 Y162.229 E3.0341
G1 X135.514 Y162.759 E3.0502
G1 X134.755 Y163.427 E3.0664
G1 X134.121 Y164.213 E3.0825
G1 X133.628 Y165.095 E3.0986
G1 X133.291 Y166.047 E3.1147
G1 X133.121 Y167.043 E3.1309
G1 X133.121 Y168.053 E3.1470
G1 X133.249 Y168.804 E3.1591
G1 X133.058 Y168.934 E3.1628
G1 X132.549 Y168.625 E3.1723
G1 X132.039 Y168.417 E3.1811
G1 X131.504 Y168.290 E3.1899
G1 X130.994 Y168.250 E3.1980
G1 X123.004 Y168.250 E3.3255
G1 X122.725 Y168.228 E3.3300
G1 X122.493 Y168.172 E3.3338
G1 X122.267 Y168.079 E3.3377
G1 X122.064 Y167.955 E3.3415
G1 X121.880 Y167.798 E3.3454
G1 X121.723 Y167.615 E3.3492
G1 X121.597 Y167.410 E3.3531
G1 X121.504 Y167.187 E3.3569
G1 X121.448 Y166.953 E3.3608
G1 X121.425 Y166.674 E3.3652
G1 X121.425 Y108.329 E4.2963
G1 X121.447 Y108.053 E4.3007
G1 X121.503 Y107.818 E4.3046
G1 X121.595 Y107.595 E4.3084
G1 X121.720 Y107.389 E4.3123
G1 X121.877 Y107.205 E4.3161
G1 X121.592 Y106.922 F4800
G92 E0
G1 X121.823 Y106.724 E0.0049 F1275
G1 X122.082 Y106.565 E0.0097
G1 X122.364 Y106.448 E0.0146
G1 X122.659 Y106.377 E0.0194
G1 X122.989 Y106.350 E0.0247
G1 X130.983 Y106.350 E0.1523
G1 X131.442 Y106.314 E0.1596
G1 X131.917 Y106.201 E0.1674
G1 X132.368 Y106.016 E0.1752
G1 X132.786 Y105.763 E0.1830
G1 X133.159 Y105.449 E0.1908
G1 X133.478 Y105.082 E0.1985
G1 X134.278 Y103.820 E0.2224
G1 X134.949 Y103.075 E0.2384
G1 X135.736 Y102.452 E0.2544
G1 X136.616 Y101.968 E0.2704
G1 X137.564 Y101.638 E0.2864
G1 X138.554 Y101.471 E0.3025
G1 X139.558 Y101.471 E0.3185
G1 X140.548 Y101.638 E0.3345
G1 X141.496 Y101.968 E0.3505
G1 X142.375 Y102.451 E0.3665
G1 X143.162 Y103.075 E0.3825
G1 X143.834 Y103.820 E0.3986
G1 X144.633 Y105.082 E0.4224
G1 X144.953 Y105.449 E0.4302
G1 X145.326 Y105.763 E0.4379
G1 X145.744 Y106.016 E0.4457
G1 X146.195 Y106.201 E0.4535
G1 X146.670 Y106.314 E0.4613
G1 X147.133 Y106.350 E0.4687
G1 X150.867 Y106.350 E0.5283
G1 X151.330 Y106.314 E0.5357
G1 X151.805 Y106.201 E0.5435
G1 X152.256 Y106.016 E0.5513
G1 X152.674 Y105.763 E0.5591
G1 X153.047 Y105.449 E0.5669
G1 X153.367 Y105.082 E0.5746
G1 X154.166 Y103.820 E0.5985
G1 X154.838 Y103.075 E0.6145
G1 X155.624 Y102.452 E0.6305
G1 X156.504 Y101.968 E0.6465
G1 X157.452 Y101.638 E0.6625
G1 X158.442 Y101.471 E0.6786
G1 X159.446 Y101.471 E0.6946
G1 X160.436 Y101.638 E0.7106
G1 X161.384 Y101.968 E0.7266
G1 X162.264 Y102.452 E0.7426
G1 X163.051 Y103.075 E0.7587
G1 X163.722 Y103.820 E0.7747
G1 X164.520 Y105.080 E0.7985
G1 X164.841 Y105.449 E0.8063
G1 X165.214 Y105.763 E0.8141
G1 X165.632 Y106.016 E0.8218
G1 X166.083 Y106.201 E0.8296
G1 X166.558 Y106.314 E0.8374
G1 X167.021 Y106.350 E0.8448
G1 X175.011 Y106.350 E0.9723
G1 X175.334 Y106.375 E0.9775
G1 X175.631 Y106.446 E0.9824
G1 X175.912 Y106.562 E0.9872
G1 X176.171 Y106.720 E0.9921
G1 X176.403 Y106.917 E0.9969
G1 X176.601 Y107.148 E1.0018
G1 X176.760 Y107.407 E1.0066
G1 X176.877 Y107.688 E1.0115
G1 X176.948 Y107.984 E1.0163
G1 X176.975 Y108.310 E1.0216
G1 X176.975 Y166.686 E1.9531
G1 X176.950 Y167.009 E1.9583
G1 X176.879 Y167.306 E1.9632
G1 X176.763 Y167.587 E1.9680
G1 X176.605 Y167.846 E1.9729
G1 X176.408 Y168.078 E1.9777
G1 X176.177 Y168.276 E1.9826
G1 X175.918 Y168.435 E1.9874
G1 X175.637 Y168.552 E1.9923
G1 X175.341 Y168.623 E1.9971
G1 X175.015 Y168.650 E2.0024
G1 X167.021 Y168.650 E2.1299
G1 X166.558 Y168.686 E2.1373
G1 X166.083 Y168.799 E2.1451
G1 X165.632 Y168.984 E2.1529
G1 X165.214 Y169.237 E2.1607
G1 X164.841 Y169.551 E2.1685
G1 X164.522 Y169.918 E2.1763
G1 X163.722 Y171.180 E2.2001
G1 X163.052 Y171.924 E2.2161
G1 X162.264 Y172.549 E2.2321
G1 X161.384 Y173.032 E2.2481
G1 X160.436 Y173.362 E2.2642
G1 X159.446 Y173.529 E2.2802
G1 X158.442 Y173.529 E2.2962
G1 X157.452 Y173.362 E2.3122
G1 X156.504 Y173.032 E2.3282
G1 X155.624 Y172.548 E2.3443
G1 X154.838 Y171.925 E2.3603
G1 X154.166 Y171.180 E2.3763
G1 X153.367 Y169.918 E2.4001
G1 X153.047 Y169.551 E2.4079
G1 X152.674 Y169.236 E2.4157
G1 X152.256 Y168.984 E2.4235
G1 X151.805 Y168.799 E2.4312
G1 X151.330 Y168.686 E2.4390
G1 X150.867 Y168.650 E2.4465
G1 X147.133 Y168.650 E2.5060
G1 X146.670 Y168.686 E2.5134
G1 X146.195 Y168.799 E2.5212
G1 X145.744 Y168.984 E2.5290
G1 X145.326 Y169.237 E2.5368
G1 X144.953 Y169.551 E2.5446
G1 X144.633 Y169.918 E2.5524
G1 X143.834 Y171.180 E2.5762
G1 X143.163 Y171.924 E2.5922
G1 X142.375 Y172.549 E2.6082
G1 X141.496 Y173.032 E2.6242
G1 X140.548 Y173.362 E2.6403
G1 X139.558 Y173.529 E2.6563
G1 X138.554 Y173.529 E2.6723
G1 X137.564 Y173.362 E2.6883
G1 X136.616 Y173.032 E2.7043
G1 X135.736 Y172.548 E2.7204
G1 X134.949 Y171.925 E2.7364
G1 X134.278 Y171.180 E2.7524
G1 X133.478 Y169.918 E2.7762
G1 X133.159 Y169.551 E2.7840
G1 X132.786 Y169.237 E2.7918
G1 X132.368 Y168.984 E2.7996
G1 X131.917 Y168.799 E2.8074
G1 X131.442 Y168.686 E2.8151
G1 X130.979 Y168.650 E2.8226
G1 X122.989 Y168.650 E2.9501
G1 X122.662 Y168.624 E2.9553
G1 X122.370 Y168.554 E2.9601
G1 X122.085 Y168.437 E2.9650
G1 X121.829 Y168.280 E2.9698
G1 X121.597 Y168.083 E2.9747
G1 X121.399 Y167.852 E2.9795
G1 X121.240 Y167.593 E2.9844
G1 X121.123 Y167.312 E2.9892
G1 X121.052 Y167.016 E2.9941
G1 X121.025 Y166.690 E2.9993
G1 X121.025 Y108.314 E3.9309
G1 X121.050 Y107.990 E3.9360
G1 X121.121 Y107.694 E3.9409
G1 X121.237 Y107.413 E3.9457
G1 X121.395 Y107.154 E3.9506
G1 X121.592 Y106.922 E3.9554
; outer perimeter
G1 X121.308 Y106.639 F4800
G92 E0
G1 X121.587 Y106.400 E0.0059 F850
G1 X121.900 Y106.208 E0.0117
G1 X122.239 Y106.066 E0.0176
G1 X122.595 Y105.980 E0.0234
G1 X122.973 Y105.950 E0.0295
G1 X130.967 Y105.950 E0.1570
G1 X131.380 Y105.918 E0.1636
G1 X131.794 Y105.819 E0.1704
G1 X132.188 Y105.658 E0.1772
G1 X132.552 Y105.437 E0.1840
G1 X132.878 Y105.163 E0.1908
G1 X133.157 Y104.842 E0.1976
G1 X133.958 Y103.577 E0.2215
G1 X134.675 Y102.782 E0.2386
G1 X135.514 Y102.117 E0.2557
G1 X136.453 Y101.601 E0.2728
G1 X137.464 Y101.249 E0.2899
G1 X138.520 Y101.071 E0.3070
G1 X139.591 Y101.071 E0.3240
G1 X140.647 Y101.249 E0.3411
G1 X141.659 Y101.601 E0.3582
G1 X142.597 Y102.117 E0.3753
G1 X143.437 Y102.782 E0.3924
G1 X144.154 Y103.577 E0.4095
G1 X144.955 Y104.842 E0.4334
