; G-Code generated by Simplify3D(R) Version 4.0.0
; Dec 1, 2017 at 11:15:17 AM
; Settings Summary
;   processName,Process1
;   applyToModels,Mirror_Mounts
;   profileName,LulzBot TAZ 5 (modified)
;   profileVersion,2017-11-30 09:01:43
;   baseProfile,
;   printMaterial,ABS
;   printQuality,Medium
;   printExtruders,
;   extruderName,Primary Extruder
;   extruderToolheadNumber,0
;   extruderDiameter,0.5
;   extruderAutoWidth,0
;   extruderWidth,0.4
;   extrusionMultiplier,1
;   extruderUseRetract,1
;   extruderRetractionDistance,1.7
;   extruderExtraRestartDistance,0
;   extruderRetractionZLift,0
;   extruderRetractionSpeed,1800
;   extruderUseCoasting,0
;   extruderCoastingDistance,0.2
;   extruderUseWipe,0
;   extruderWipeDistance,5
;   primaryExtruder,0
;   layerHeight,0.3
;   topSolidLayers,3
;   bottomSolidLayers,3
;   perimeterOutlines,2
;   printPerimetersInsideOut,1
;   startPointOption,2
;   startPointOriginX,0
;   startPointOriginY,0
;   sequentialIslands,0
;   spiralVaseMode,0
;   firstLayerHeightPercentage,90
;   firstLayerWidthPercentage,100
;   firstLayerUnderspeed,0.5
;   useRaft,0
;   raftExtruder,0
;   raftTopLayers,3
;   raftBaseLayers,2
;   raftOffset,3
;   raftSeparationDistance,0.14
;   raftTopInfill,100
;   aboveRaftSpeedMultiplier,0.3
;   useSkirt,1
;   skirtExtruder,0
;   skirtLayers,1
;   skirtOutlines,2
;   skirtOffset,6
;   usePrimePillar,0
;   primePillarExtruder,999
;   primePillarWidth,12
;   primePillarLocation,7
;   primePillarSpeedMultiplier,1
;   useOozeShield,0
;   oozeShieldExtruder,999
;   oozeShieldOffset,2
;   oozeShieldOutlines,1
;   oozeShieldSidewallShape,1
;   oozeShieldSidewallAngle,30
;   oozeShieldSpeedMultiplier,1
;   infillExtruder,0
;   internalInfillPattern,Rectilinear
;   externalInfillPattern,Rectilinear
;   infillPercentage,20
;   outlineOverlapPercentage,15
;   infillExtrusionWidthPercentage,200
;   minInfillLength,5
;   infillLayerInterval,1
;   internalInfillAngles,45,-45
;   overlapInternalInfillAngles,0
;   externalInfillAngles,45,-45
;   generateSupport,0
;   supportExtruder,0
;   supportInfillPercentage,30
;   supportExtraInflation,0
;   supportBaseLayers,0
;   denseSupportExtruder,0
;   denseSupportLayers,0
;   denseSupportInfillPercentage,70
;   supportLayerInterval,1
;   supportHorizontalPartOffset,0.3
;   supportUpperSeparationLayers,1
;   supportLowerSeparationLayers,1
;   supportType,0
;   supportGridSpacing,4
;   maxOverhangAngle,45
;   supportAngles,0
;   temperatureName,Primary Extruder,Heated Bed
;   temperatureNumber,0,1
;   temperatureSetpointCount,1,1
;   temperatureSetpointLayers,1,1
;   temperatureSetpointTemperatures,240,110
;   temperatureStabilizeAtStartup,1,1
;   temperatureHeatedBed,0,1
;   temperatureRelayBetweenLayers,0,0
;   temperatureRelayBetweenLoops,0,0
;   fanLayers,1
;   fanSpeeds,0
;   blipFanToFullPower,1
;   adjustSpeedForCooling,1
;   minSpeedLayerTime,15
;   minCoolingSpeedSlowdown,20
;   increaseFanForCooling,0
;   minFanLayerTime,45
;   maxCoolingFanSpeed,100
;   increaseFanForBridging,0
;   bridgingFanSpeed,100
;   use5D,1
;   relativeEdistances,0
;   allowEaxisZeroing,1
;   independentExtruderAxes,0
;   includeM10123,0
;   stickySupport,1
;   applyToolheadOffsets,0
;   gcodeXoffset,0
;   gcodeYoffset,0
;   gcodeZoffset,0
;   overrideMachineDefinition,1
;   machineTypeOverride,0
;   strokeXoverride,298
;   strokeYoverride,275
;   strokeZoverride,250
;   originOffsetXoverride,0
;   originOffsetYoverride,0
;   originOffsetZoverride,0
;   homeXdirOverride,-1
;   homeYdirOverride,-1
;   homeZdirOverride,-1
;   flipXoverride,1
;   flipYoverride,-1
;   flipZoverride,1
;   toolheadOffsets,0,0|0,0|0,0|0,0|0,0|0,0
;   overrideFirmwareConfiguration,1
;   firmwareTypeOverride,RepRap (Marlin/Repetier/Sprinter)
;   GPXconfigOverride,r2
;   baudRateOverride,115200
;   overridePrinterModels,1
;   printerModelsOverride,LulzBot_TAZ3.stl
;   startingGcode,G28 ; home all axes
;   layerChangeGcode,
;   retractionGcode,
;   toolChangeGcode,
;   endingGcode,M104 S0 ; turn off extruder,M140 S0 ; turn off bed,G28 X0 ; home X axis,M84 ; disable motors
;   exportFileFormat,gcode
;   celebration,0
;   celebrationSong,Random Song
;   postProcessing,
;   defaultSpeed,3600
;   outlineUnderspeed,0.5
;   solidInfillUnderspeed,0.8
;   supportUnderspeed,0.8
;   rapidXYspeed,4800
;   rapidZspeed,1000
;   minBridgingArea,50
;   bridgingExtraInflation,0
;   bridgingExtrusionMultiplier,1
;   bridgingSpeedMultiplier,1
;   useFixedBridgingAngle,0
;   fixedBridgingAngle,0
;   applyBridgingToPerimeters,0
;   filamentDiameters,3|3|3|3|3|3
;   filamentPricesPerKg,46|46|46|46|46|46
;   filamentDensities,1.25|1.25|1.25|1.25|1.25|1.25
;   useMinPrintHeight,0
;   minPrintHeight,0
;   useMaxPrintHeight,0
;   maxPrintHeight,0
;   useDiaphragm,0
;   diaphragmLayerInterval,20
;   robustSlicing,1
;   mergeAllIntoSolid,0
;   onlyRetractWhenCrossingOutline,1
;   retractBetweenLayers,1
;   useRetractionMinTravel,0
;   retractionMinTravel,3
;   retractWhileWiping,0
;   onlyWipeOutlines,1
;   avoidCrossingOutline,0
;   maxMovementDetourFactor,3
;   toolChangeRetractionDistance,12
;   toolChangeExtraRestartDistance,-0.5
;   toolChangeRetractionSpeed,600
;   externalThinWallType,0
;   internalThinWallType,2
;   thinWallAllowedOverlapPercentage,10
;   singleExtrusionMinLength,1
;   singleExtrusionMinPrintingWidthPercentage,50
;   singleExtrusionMaxPrintingWidthPercentage,200
;   singleExtrusionEndpointExtension,0.2
;   horizontalSizeCompensation,0
G90
M82
M106 S255
G4 P500
M106 S0
M140 S110
M190 S110
M104 S240 T0
M109 S240 T0
G28 ; home all axes
G92 E0
G1 E-1.7000 F1800
G1 Z0.270 F1000
; process Process1
; layer 1, Z = 0.270
T0
; tool H0.300 W0.400
; skirt
G1 X135.696 Y105.927 F4800
G1 E0.0000 F540
G92 E0
G1 X137.028 Y104.344 E0.0351 F1800
G1 X137.044 Y104.327 E0.0355
G1 X137.388 Y103.978 E0.0438
G1 X137.405 Y103.962 E0.0442
G1 X138.966 Y102.605 E0.0793
G1 X138.984 Y102.590 E0.0797
G1 X139.378 Y102.299 E0.0881
G1 X139.397 Y102.286 E0.0885
G1 X141.150 Y101.187 E0.1236
G1 X141.170 Y101.175 E0.1240
G1 X141.604 Y100.948 E0.1323
G1 X141.625 Y100.938 E0.1327
G1 X143.527 Y100.124 E0.1678
G1 X143.548 Y100.115 E0.1682
G1 X144.013 Y99.958 E0.1765
G1 X144.035 Y99.952 E0.1769
G1 X146.040 Y99.442 E0.2120
G1 X146.062 Y99.437 E0.2124
G1 X146.545 Y99.353 E0.2207
G1 X146.568 Y99.350 E0.2211
G1 X148.677 Y99.153 E0.2571
G1 X148.705 Y99.151 E0.2576
G1 X149.295 Y99.151 E0.2676
G1 X149.323 Y99.153 E0.2680
G1 X151.432 Y99.350 E0.3040
G1 X151.455 Y99.353 E0.3044
G1 X151.938 Y99.437 E0.3127
G1 X151.960 Y99.442 E0.3131
G1 X153.965 Y99.952 E0.3482
G1 X153.987 Y99.958 E0.3486
G1 X154.452 Y100.115 E0.3570
G1 X154.473 Y100.124 E0.3573
G1 X156.375 Y100.938 E0.3925
G1 X156.396 Y100.948 E0.3929
G1 X156.830 Y101.175 E0.4012
G1 X156.850 Y101.187 E0.4016
G1 X158.603 Y102.286 E0.4367
G1 X158.622 Y102.299 E0.4371
G1 X159.016 Y102.590 E0.4454
G1 X159.034 Y102.605 E0.4458
G1 X160.595 Y103.962 E0.4809
G1 X160.612 Y103.978 E0.4813
G1 X160.956 Y104.327 E0.4896
G1 X160.972 Y104.344 E0.4900
G1 X162.304 Y105.927 E0.5251
G1 X162.318 Y105.945 E0.5255
G1 X162.604 Y106.343 E0.5339
G1 X162.617 Y106.363 E0.5343
G1 X163.687 Y108.132 E0.5693
G1 X163.698 Y108.152 E0.5697
G1 X163.918 Y108.588 E0.5780
G1 X163.927 Y108.609 E0.5784
G1 X164.703 Y110.498 E0.6131
G1 X164.711 Y110.520 E0.6135
G1 X164.862 Y110.988 E0.6218
G1 X164.868 Y111.011 E0.6222
G1 X165.359 Y113.076 E0.6583
G1 X165.363 Y113.099 E0.6587
G1 X165.439 Y113.585 E0.6670
G1 X165.442 Y113.609 E0.6674
G1 X165.590 Y115.523 E0.7000
G1 X165.590 Y115.534 E0.7002
G1 X165.600 Y115.777 E0.7043
G1 X165.600 Y115.789 E0.7045
G1 X165.600 Y159.153 E1.4407
G1 X165.600 Y159.164 E1.4409
G1 X165.591 Y159.401 E1.4449
G1 X165.590 Y159.412 E1.4451
G1 X165.440 Y161.408 E1.4791
G1 X165.437 Y161.431 E1.4795
G1 X165.361 Y161.923 E1.4879
G1 X165.356 Y161.946 E1.4883
G1 X164.877 Y163.962 E1.5235
G1 X164.871 Y163.985 E1.5239
G1 X164.721 Y164.452 E1.5322
G1 X164.713 Y164.474 E1.5326
G1 X163.929 Y166.388 E1.5678
G1 X163.919 Y166.409 E1.5682
G1 X163.699 Y166.847 E1.5765
G1 X163.688 Y166.868 E1.5769
G1 X162.617 Y168.637 E1.6120
G1 X162.604 Y168.657 E1.6124
G1 X162.318 Y169.055 E1.6207
G1 X162.304 Y169.073 E1.6211
G1 X160.972 Y170.656 E1.6562
G1 X160.956 Y170.673 E1.6566
G1 X160.612 Y171.022 E1.6649
G1 X160.595 Y171.038 E1.6653
G1 X159.034 Y172.395 E1.7004
G1 X159.016 Y172.410 E1.7008
G1 X158.622 Y172.701 E1.7092
G1 X158.603 Y172.714 E1.7095
G1 X156.850 Y173.813 E1.7447
G1 X156.830 Y173.825 E1.7451
G1 X156.396 Y174.052 E1.7534
G1 X156.375 Y174.062 E1.7538
G1 X154.473 Y174.876 E1.7889
G1 X154.452 Y174.885 E1.7893
G1 X153.987 Y175.042 E1.7976
G1 X153.965 Y175.048 E1.7980
G1 X151.960 Y175.558 E1.8331
G1 X151.938 Y175.563 E1.8335
G1 X151.455 Y175.647 E1.8418
G1 X151.432 Y175.650 E1.8422
G1 X149.323 Y175.847 E1.8782
G1 X149.295 Y175.849 E1.8787
G1 X148.705 Y175.849 E1.8887
G1 X148.677 Y175.847 E1.8891
G1 X146.568 Y175.650 E1.9251
G1 X146.545 Y175.647 E1.9255
G1 X146.062 Y175.563 E1.9338
G1 X146.040 Y175.558 E1.9342
G1 X144.035 Y175.048 E1.9693
G1 X144.013 Y175.042 E1.9697
G1 X143.548 Y174.885 E1.9780
G1 X143.527 Y174.876 E1.9784
G1 X141.625 Y174.062 E2.0136
G1 X141.604 Y174.052 E2.0140
G1 X141.170 Y173.825 E2.0223
G1 X141.150 Y173.813 E2.0227
G1 X139.397 Y172.714 E2.0578
G1 X139.378 Y172.701 E2.0582
G1 X138.984 Y172.410 E2.0665
G1 X138.966 Y172.395 E2.0669
G1 X137.405 Y171.038 E2.1020
G1 X137.388 Y171.022 E2.1024
G1 X137.044 Y170.673 E2.1107
G1 X137.028 Y170.656 E2.1111
G1 X135.696 Y169.073 E2.1462
G1 X135.682 Y169.055 E2.1466
G1 X135.396 Y168.657 E2.1550
G1 X135.383 Y168.637 E2.1553
G1 X134.313 Y166.868 E2.1904
G1 X134.302 Y166.848 E2.1908
G1 X134.082 Y166.412 E2.1991
G1 X134.073 Y166.391 E2.1995
G1 X133.298 Y164.505 E2.2341
G1 X133.290 Y164.483 E2.2345
G1 X133.141 Y164.020 E2.2428
G1 X133.135 Y163.998 E2.2432
G1 X132.646 Y161.960 E2.2788
G1 X132.642 Y161.937 E2.2792
G1 X132.565 Y161.447 E2.2876
G1 X132.562 Y161.423 E2.2880
G1 X132.410 Y159.480 E2.3211
G1 X132.410 Y159.469 E2.3213
G1 X132.400 Y159.224 E2.3254
G1 X132.400 Y159.212 E2.3256
G1 X132.401 Y115.760 E3.0633
G1 X132.401 Y115.748 E3.0635
G1 X132.411 Y115.501 E3.0677
G1 X132.412 Y115.489 E3.0679
G1 X132.562 Y113.576 E3.1005
G1 X132.565 Y113.553 E3.1009
G1 X132.641 Y113.072 E3.1091
G1 X132.645 Y113.049 E3.1095
G1 X133.122 Y111.038 E3.1446
G1 X133.129 Y111.015 E3.1450
G1 X133.279 Y110.548 E3.1533
G1 X133.287 Y110.526 E3.1537
G1 X134.071 Y108.612 E3.1889
G1 X134.081 Y108.591 E3.1893
G1 X134.301 Y108.153 E3.1976
G1 X134.312 Y108.132 E3.1980
G1 X135.383 Y106.363 E3.2331
G1 X135.396 Y106.343 E3.2335
G1 X135.682 Y105.945 E3.2418
G1 X135.696 Y105.927 E3.2422
G1 X136.007 Y106.178 F4800
G92 E0
G1 X137.329 Y104.608 E0.0349 F1800
G1 X137.335 Y104.602 E0.0350
G1 X137.667 Y104.264 E0.0430
G1 X137.673 Y104.259 E0.0432
G1 X139.222 Y102.912 E0.0780
G1 X139.229 Y102.907 E0.0782
G1 X139.610 Y102.625 E0.0862
G1 X139.616 Y102.620 E0.0863
G1 X141.356 Y101.530 E0.1212
G1 X141.362 Y101.526 E0.1213
G1 X141.783 Y101.306 E0.1294
G1 X141.790 Y101.303 E0.1295
G1 X143.677 Y100.495 E0.1644
G1 X143.684 Y100.492 E0.1645
G1 X144.134 Y100.339 E0.1725
G1 X144.141 Y100.337 E0.1727
G1 X146.131 Y99.831 E0.2075
G1 X146.138 Y99.830 E0.2077
G1 X146.606 Y99.749 E0.2157
G1 X146.613 Y99.748 E0.2159
G1 X148.705 Y99.552 E0.2515
G1 X148.715 Y99.551 E0.2517
G1 X149.285 Y99.551 E0.2614
G1 X149.295 Y99.552 E0.2615
G1 X151.387 Y99.748 E0.2972
G1 X151.394 Y99.749 E0.2973
G1 X151.862 Y99.830 E0.3054
G1 X151.869 Y99.831 E0.3055
G1 X153.859 Y100.337 E0.3404
G1 X153.866 Y100.339 E0.3405
G1 X154.316 Y100.492 E0.3486
G1 X154.323 Y100.495 E0.3487
G1 X156.210 Y101.303 E0.3835
G1 X156.217 Y101.306 E0.3837
G1 X156.638 Y101.526 E0.3917
G1 X156.645 Y101.530 E0.3919
G1 X158.384 Y102.620 E0.4267
G1 X158.390 Y102.625 E0.4268
G1 X158.771 Y102.907 E0.4349
G1 X158.777 Y102.912 E0.4350
G1 X160.327 Y104.259 E0.4699
G1 X160.333 Y104.264 E0.4700
G1 X160.665 Y104.602 E0.4781
G1 X160.671 Y104.608 E0.4782
G1 X161.993 Y106.178 E0.5130
G1 X161.998 Y106.185 E0.5132
G1 X162.274 Y106.570 E0.5212
G1 X162.278 Y106.577 E0.5214
G1 X163.341 Y108.332 E0.5562
G1 X163.345 Y108.339 E0.5563
G1 X163.557 Y108.761 E0.5643
G1 X163.560 Y108.768 E0.5645
G1 X164.330 Y110.642 E0.5989
G1 X164.332 Y110.650 E0.5990
G1 X164.478 Y111.104 E0.6071
G1 X164.481 Y111.111 E0.6072
G1 X164.968 Y113.161 E0.6430
G1 X164.969 Y113.169 E0.6431
G1 X165.043 Y113.640 E0.6512
G1 X165.044 Y113.647 E0.6514
G1 X165.191 Y115.550 E0.6838
G1 X165.191 Y115.554 E0.6838
G1 X165.200 Y115.789 E0.6878
G1 X165.200 Y115.792 E0.6879
G1 X165.200 Y159.149 E1.4239
G1 X165.200 Y159.153 E1.4240
G1 X165.191 Y159.382 E1.4279
G1 X165.191 Y159.386 E1.4280
G1 X165.041 Y161.370 E1.4617
G1 X165.040 Y161.378 E1.4619
G1 X164.967 Y161.853 E1.4700
G1 X164.965 Y161.861 E1.4702
G1 X164.490 Y163.862 E1.5051
G1 X164.488 Y163.870 E1.5052
G1 X164.343 Y164.322 E1.5133
G1 X164.340 Y164.329 E1.5134
G1 X163.562 Y166.229 E1.5483
G1 X163.559 Y166.236 E1.5484
G1 X163.345 Y166.660 E1.5565
G1 X163.341 Y166.667 E1.5566
G1 X162.278 Y168.423 E1.5914
G1 X162.274 Y168.430 E1.5916
G1 X161.998 Y168.815 E1.5996
G1 X161.993 Y168.822 E1.5998
G1 X160.671 Y170.392 E1.6346
G1 X160.665 Y170.398 E1.6347
G1 X160.333 Y170.736 E1.6428
G1 X160.327 Y170.741 E1.6429
G1 X158.777 Y172.088 E1.6778
G1 X158.771 Y172.093 E1.6779
G1 X158.390 Y172.375 E1.6860
G1 X158.384 Y172.380 E1.6861
G1 X156.644 Y173.470 E1.7209
G1 X156.638 Y173.474 E1.7211
G1 X156.217 Y173.694 E1.7291
G1 X156.210 Y173.697 E1.7293
G1 X154.323 Y174.505 E1.7641
G1 X154.316 Y174.508 E1.7643
G1 X153.866 Y174.661 E1.7723
G1 X153.859 Y174.663 E1.7724
G1 X151.869 Y175.169 E1.8073
G1 X151.862 Y175.170 E1.8074
G1 X151.394 Y175.251 E1.8155
G1 X151.387 Y175.252 E1.8156
G1 X149.295 Y175.448 E1.8513
G1 X149.285 Y175.449 E1.8514
G1 X148.715 Y175.449 E1.8611
G1 X148.705 Y175.448 E1.8613
G1 X146.613 Y175.252 E1.8970
G1 X146.606 Y175.251 E1.8971
G1 X146.138 Y175.170 E1.9051
G1 X146.131 Y175.169 E1.9053
G1 X144.141 Y174.663 E1.9401
G1 X144.134 Y174.661 E1.9403
G1 X143.684 Y174.508 E1.9483
G1 X143.677 Y174.505 E1.9484
G1 X141.790 Y173.697 E1.9833
G1 X141.783 Y173.694 E1.9834
G1 X141.362 Y173.474 E1.9915
G1 X141.356 Y173.470 E1.9916
G1 X139.616 Y172.380 E2.0265
G1 X139.610 Y172.375 E2.0266
G1 X139.229 Y172.093 E2.0347
G1 X139.222 Y172.088 E2.0348
G1 X137.673 Y170.741 E2.0696
G1 X137.667 Y170.736 E2.0698
G1 X137.335 Y170.398 E2.0778
G1 X137.329 Y170.392 E2.0780
G1 X136.007 Y168.822 E2.1128
G1 X136.002 Y168.815 E2.1129
G1 X135.726 Y168.430 E2.1210
G1 X135.722 Y168.423 E2.1211
G1 X134.659 Y166.668 E2.1560
G1 X134.655 Y166.661 E2.1561
G1 X134.443 Y166.239 E2.1641
G1 X134.440 Y166.232 E2.1642
G1 X133.671 Y164.360 E2.1986
G1 X133.669 Y164.353 E2.1987
G1 X133.524 Y163.905 E2.2067
G1 X133.522 Y163.897 E2.2068
G1 X133.037 Y161.875 E2.2422
G1 X133.036 Y161.867 E2.2423
G1 X132.961 Y161.392 E2.2505
G1 X132.960 Y161.385 E2.2506
G1 X132.810 Y159.453 E2.2835
G1 X132.809 Y159.449 E2.2835
G1 X132.800 Y159.212 E2.2876
G1 X132.800 Y159.208 E2.2876
G1 X132.801 Y115.764 E3.0252
G1 X132.801 Y115.760 E3.0252
G1 X132.811 Y115.520 E3.0293
G1 X132.811 Y115.517 E3.0294
G1 X132.961 Y113.615 E3.0618
G1 X132.961 Y113.607 E3.0619
G1 X133.035 Y113.141 E3.0699
G1 X133.036 Y113.134 E3.0700
G1 X133.510 Y111.138 E3.1048
G1 X133.512 Y111.130 E3.1050
G1 X133.657 Y110.678 E3.1130
G1 X133.660 Y110.671 E3.1132
G1 X134.438 Y108.771 E3.1480
G1 X134.441 Y108.764 E3.1482
G1 X134.655 Y108.340 E3.1562
G1 X134.659 Y108.333 E3.1564
G1 X135.722 Y106.577 E3.1912
G1 X135.726 Y106.570 E3.1913
G1 X136.002 Y106.185 E3.1994
G1 X136.007 Y106.178 E3.1995
G92 E0
G1 E-1.7000 F1800
; inner perimeter
G1 X141.392 Y110.341 F4800
G1 E0.0000 F1800
G92 E0
G1 X142.348 Y109.205 E0.0252 F1350
G1 X143.469 Y108.231 E0.0504
G1 X144.727 Y107.442 E0.0756
G1 X146.092 Y106.858 E0.1008
G1 X147.531 Y106.492 E0.1260
G1 X149.000 Y106.354 E0.1511
G1 X150.469 Y106.492 E0.1761
G1 X151.908 Y106.858 E0.2013
G1 X153.273 Y107.442 E0.2265
G1 X154.531 Y108.231 E0.2518
G1 X155.652 Y109.205 E0.2770
G1 X156.608 Y110.341 E0.3022
G1 X157.377 Y111.611 E0.3274
